FINK
CUT[DIE DUNKLE NACHT IST NUN DAHIN]
REG[Europa, Mitteleuropa, Deutschland]
KEY[F1080  08  D 6/4]
MEL[1_  -7b__-6b_-5__-4_  -3b_.-2-1-2--7_0_
    -2_  -3b__-3b_-4__-5_  -5__-4_-5_0_
    1_  -7b__-6b_-5__-4_  -3b_.-2-1-2--7_0_
    -2_  -3b__-3b_-4__-5_  -5__-4_-5_0_
    -5_  -7b_-4_-6b-5-5__-5_  -4_.-3b-2_-3b_-3b_
    -5_  -6__-7_1_.23b_  2_.1-7_1_1_ //] >>
FCT[Trost - Lied, religioes]
